assets/aboutus/nodownloads 1.svg

<svg width="410" height="410" viewBox="0 0 410 410" fill="none" xmlns="http://www.w3.org/2000/svg">
<g clip-path="url(#clip0_71_408)">
<path d="M200.005 410.002C310.462 410.002 400.005 320.458 400.005 210.001C400.005 99.5445 310.462 10.0015 200.005 10.0015C89.5473 10.0015 0.00390625 99.5445 0.00390625 210.001C0.00390625 320.458 89.5473 410.002 200.005 410.002Z" fill="url(#paint0_linear_71_408)"/>
<path fill-rule="evenodd" clip-rule="evenodd" d="M80.003 331.331V289.331C80.003 286.572 77.7629 284.331 75.0029 284.331C72.2429 284.331 70.0029 286.572 70.0029 289.331V331.331C70.0029 334.091 72.2429 336.331 75.0029 336.331C77.7629 336.331 80.003 334.091 80.003 331.331Z" fill="url(#paint1_linear_71_408)"/>
<path fill-rule="evenodd" clip-rule="evenodd" d="M142.51 331.331V201.331C142.51 198.572 140.27 196.331 137.51 196.331C134.75 196.331 132.51 198.572 132.51 201.331V331.331C132.51 334.091 134.75 336.331 137.51 336.331C140.27 336.331 142.51 334.091 142.51 331.331Z" fill="url(#paint2_linear_71_408)"/>
<path fill-rule="evenodd" clip-rule="evenodd" d="M205.006 331.331V171.331C205.006 168.572 202.766 166.331 200.006 166.331C197.246 166.331 195.006 168.572 195.006 171.331V331.331C195.006 334.091 197.246 336.331 200.006 336.331C202.766 336.331 205.006 334.091 205.006 331.331Z" fill="url(#paint3_linear_71_408)"/>
<path fill-rule="evenodd" clip-rule="evenodd" d="M267.503 331.331V216.331C267.503 213.572 265.263 211.331 262.503 211.331C259.743 211.331 257.503 213.572 257.503 216.331V331.331C257.503 334.091 259.743 336.331 262.503 336.331C265.263 336.331 267.503 334.091 267.503 331.331Z" fill="url(#paint4_linear_71_408)"/>
<path fill-rule="evenodd" clip-rule="evenodd" d="M330.01 334.331V201.331C330.01 198.572 327.77 196.331 325.01 196.331C322.25 196.331 320.01 198.572 320.01 201.331V334.331C320.01 337.091 322.25 339.331 325.01 339.331C327.77 339.331 330.01 337.091 330.01 334.331Z" fill="url(#paint5_linear_71_408)"/>
<path fill-rule="evenodd" clip-rule="evenodd" d="M70.0059 308.002H92.4099C103.622 308.002 114.32 303.296 121.896 295.031C127.448 288.975 134.268 281.534 140.832 274.373C154.551 259.407 177.384 257.285 193.626 269.467L193.627 269.468C209.337 281.25 231.32 279.688 245.206 265.802C250.112 260.896 255.059 255.949 259.29 251.718C266.792 244.216 276.966 240.002 287.575 240.002H330.006V334.331H70.0059V308.002Z" fill="url(#paint6_linear_71_408)"/>
<path fill-rule="evenodd" clip-rule="evenodd" d="M5.00587 340.001H325.007C327.767 340.001 330.007 337.761 330.007 335.001C330.007 332.242 327.767 330.001 325.007 330.001H5.00587C2.24586 330.001 0.00585938 332.242 0.00585938 335.001C0.00585938 337.761 2.24586 340.001 5.00587 340.001Z" fill="url(#paint7_linear_71_408)"/>
<path fill-rule="evenodd" clip-rule="evenodd" d="M75.0059 313.002H92.4099C105.024 313.002 117.058 307.708 125.582 298.41C131.133 292.353 137.954 284.913 144.518 277.752C156.499 264.681 176.441 262.828 190.626 273.467L190.627 273.468C208.328 286.743 233.096 284.983 248.741 269.338C253.647 264.432 258.594 259.485 262.826 255.253C269.39 248.69 278.292 245.002 287.574 245.002C287.575 245.002 350.007 245.002 350.007 245.002C352.767 245.002 355.007 242.762 355.007 240.002C355.007 237.242 352.767 235.002 350.007 235.002C350.007 235.002 310.741 235.002 287.575 235.002C275.64 235.002 264.194 239.743 255.755 248.182C251.523 252.414 246.576 257.361 241.67 262.267C229.544 274.393 210.346 275.757 196.627 265.468L196.626 265.467C178.327 251.743 152.603 254.133 137.146 270.995C130.582 278.156 123.762 285.596 118.21 291.652C111.581 298.884 102.221 303.002 92.4099 303.002H75.0059C72.2459 303.002 70.0059 305.242 70.0059 308.002C70.0059 310.762 72.2459 313.002 75.0059 313.002Z" fill="url(#paint8_linear_71_408)"/>
<path fill-rule="evenodd" clip-rule="evenodd" d="M105.006 122.002H146.006C148.766 122.002 151.006 119.762 151.006 117.002C151.006 114.242 148.766 112.002 146.006 112.002H105.006C102.246 112.002 100.006 114.242 100.006 117.002C100.006 119.762 102.246 122.002 105.006 122.002Z" fill="white"/>
<path fill-rule="evenodd" clip-rule="evenodd" d="M105.003 153.167H131.003C133.763 153.167 136.003 150.927 136.003 148.167C136.003 145.407 133.763 143.167 131.003 143.167H105.003C102.243 143.167 100.002 145.407 100.002 148.167C100.002 150.927 102.243 153.167 105.003 153.167Z" fill="white"/>
<path d="M80.0075 127.004C85.5302 127.004 90.0073 122.527 90.0073 117.005C90.0073 111.482 85.5302 107.005 80.0075 107.005C74.4848 107.005 70.0078 111.482 70.0078 117.005C70.0078 122.527 74.4848 127.004 80.0075 127.004Z" fill="white"/>
<path d="M80.0075 158.168C85.5302 158.168 90.0073 153.691 90.0073 148.169C90.0073 142.646 85.5302 138.169 80.0075 138.169C74.4848 138.169 70.0078 142.646 70.0078 148.169C70.0078 153.691 74.4848 158.168 80.0075 158.168Z" fill="white"/>
<path fill-rule="evenodd" clip-rule="evenodd" d="M340.012 0.00146484C301.378 0.00146484 270.012 31.3677 270.012 70.0017C270.012 108.636 301.378 140.002 340.012 140.002C378.646 140.002 410.013 108.636 410.013 70.0017C410.013 31.3677 378.646 0.00146484 340.012 0.00146484ZM340.012 10.0017C373.127 10.0017 400.012 36.8869 400.012 70.0017C400.012 103.117 373.127 130.002 340.012 130.002C306.897 130.002 280.012 103.117 280.012 70.0017C280.012 36.8869 306.897 10.0017 340.012 10.0017Z" fill="#151515"/>
<path d="M340.012 130.002C373.149 130.002 400.012 103.139 400.012 70.002C400.012 36.8649 373.149 10.002 340.012 10.002C306.875 10.002 280.012 36.8649 280.012 70.002C280.012 103.139 306.875 130.002 340.012 130.002Z" fill="#151515"/>
<path fill-rule="evenodd" clip-rule="evenodd" d="M340.012 10C373.127 10 400.013 36.8851 400.013 69.9998C400.013 103.115 373.127 130 340.012 130C306.897 130 280.012 103.115 280.012 69.9998C280.012 36.8851 306.897 10 340.012 10ZM340.012 20.0002C367.608 20.0002 390.012 42.4042 390.012 69.9998C390.012 97.5954 367.608 119.999 340.012 119.999C312.417 119.999 290.013 97.5954 290.013 69.9998C290.013 42.4042 312.417 20.0002 340.012 20.0002Z" fill="url(#paint9_linear_71_408)"/>
<path fill-rule="evenodd" clip-rule="evenodd" d="M311.214 73.5356L328.056 90.3774C330.009 92.3294 333.175 92.3294 335.128 90.3774L368.811 56.6939C370.762 54.7419 370.762 51.574 368.811 49.622C366.859 47.6709 363.691 47.6709 361.739 49.622L331.592 79.7705L318.286 66.4638C316.334 64.5127 313.166 64.5127 311.214 66.4638C309.263 68.4158 309.263 71.5837 311.214 73.5356Z" fill="url(#paint10_linear_71_408)"/>
<path fill-rule="evenodd" clip-rule="evenodd" d="M0.000976563 324.738L0.000976563 335.002C0.000976563 337.763 2.24 340.002 5.00147 340.002H110.079C112.838 340.002 115.078 337.762 115.078 335.002C115.078 332.242 112.838 330.002 110.079 330.002H10.002V324.738C10.002 321.978 7.76147 319.738 5.00147 319.738C2.24146 319.738 0.000976563 321.978 0.000976563 324.738Z" fill="white"/>
<path fill-rule="evenodd" clip-rule="evenodd" d="M30.0029 262.396V298.395C30.0029 301.155 32.2429 303.396 35.0029 303.396C37.7629 303.396 40.003 301.155 40.003 298.395V262.396C40.003 259.636 37.7629 257.396 35.0029 257.396C32.2429 257.396 30.0029 259.636 30.0029 262.396Z" fill="white"/>
<path fill-rule="evenodd" clip-rule="evenodd" d="M16.3889 298.408L31.4486 313.467C33.4018 315.419 36.5674 315.419 38.5206 313.467L53.6148 298.372C55.5666 296.421 55.5666 293.253 53.6148 291.301C51.6631 289.349 48.4946 289.349 46.5444 291.301L34.9846 302.861L23.461 291.336C21.5093 289.386 18.3407 289.386 16.3889 291.336C14.4387 293.287 14.4387 296.456 16.3889 298.408Z" fill="white"/>
</g>
<defs>
<linearGradient id="paint0_linear_71_408" x1="70.3055" y1="57.8024" x2="350.323" y2="341.873" gradientUnits="userSpaceOnUse">
<stop stop-color="#FF0CF5"/>
<stop offset="1" stop-color="#0575E6"/>
</linearGradient>
<linearGradient id="paint1_linear_71_408" x1="53.0029" y1="199.002" x2="111.003" y2="316.002" gradientUnits="userSpaceOnUse">
<stop stop-color="#3AA0FE"/>
<stop offset="1" stop-color="#59FEF4"/>
</linearGradient>
<linearGradient id="paint2_linear_71_408" x1="115.51" y1="199.002" x2="173.51" y2="316.002" gradientUnits="userSpaceOnUse">
<stop stop-color="#3AA0FE"/>
<stop offset="1" stop-color="#59FEF4"/>
</linearGradient>
<linearGradient id="paint3_linear_71_408" x1="178.006" y1="199.002" x2="236.006" y2="316.002" gradientUnits="userSpaceOnUse">
<stop stop-color="#3AA0FE"/>
<stop offset="1" stop-color="#59FEF4"/>
</linearGradient>
<linearGradient id="paint4_linear_71_408" x1="240.503" y1="199.002" x2="298.503" y2="316.002" gradientUnits="userSpaceOnUse">
<stop stop-color="#3AA0FE"/>
<stop offset="1" stop-color="#59FEF4"/>
</linearGradient>
<linearGradient id="paint5_linear_71_408" x1="303.01" y1="199.002" x2="361.01" y2="316.002" gradientUnits="userSpaceOnUse">
<stop stop-color="#3AA0FE"/>
<stop offset="1" stop-color="#59FEF4"/>
</linearGradient>
<linearGradient id="paint6_linear_71_408" x1="180.006" y1="252.831" x2="180.006" y2="341.873" gradientUnits="userSpaceOnUse">
<stop stop-color="#36FF78" stop-opacity="0.8"/>
<stop offset="1" stop-color="#0CFFFF" stop-opacity="0.15"/>
</linearGradient>
<linearGradient id="paint7_linear_71_408" x1="0.00585938" y1="335.001" x2="313.007" y2="335.001" gradientUnits="userSpaceOnUse">
<stop stop-color="#3AA0FE"/>
<stop offset="1" stop-color="#59FEF4"/>
</linearGradient>
<linearGradient id="paint8_linear_71_408" x1="86.0059" y1="260.002" x2="285.006" y2="291.002" gradientUnits="userSpaceOnUse">
<stop stop-color="#36FF78"/>
<stop offset="1" stop-color="#0CFFFF"/>
</linearGradient>
<linearGradient id="paint9_linear_71_408" x1="280.012" y1="69.9998" x2="400.013" y2="69.9998" gradientUnits="userSpaceOnUse">
<stop stop-color="#36FF78"/>
<stop offset="1" stop-color="#0CFFFF"/>
</linearGradient>
<linearGradient id="paint10_linear_71_408" x1="310.012" y1="75" x2="365.012" y2="90.0002" gradientUnits="userSpaceOnUse">
<stop stop-color="#36FF78"/>
<stop offset="1" stop-color="#0CFFFF"/>
</linearGradient>
<clipPath id="clip0_71_408">
<rect width="410" height="410" fill="white"/>
</clipPath>
</defs>
</svg>

<svg xmlns="http://www.w3.org/2000/svg" xmlns:xlink="http://www.w3.org/1999/xlink" width="410" height="410" fill="none" xmlns:v="https://vecta.io/nano"><g clip-path="url(#L)"><path d="M200.005 410.002c110.457 0 200-89.544 200-200.001s-89.543-199.999-200-199.999S.004 99.545.004 210.001s89.543 200.001 200.001 200.001z" fill="url(#A)"/><g fill-rule="evenodd"><path d="M80.003 331.331v-42c0-2.759-2.24-5-5-5s-5 2.241-5 5v42c0 2.76 2.24 5 5 5s5-2.24 5-5z" fill="url(#B)"/><path d="M142.51 331.331v-130c0-2.759-2.24-5-5-5s-5 2.241-5 5v130c0 2.76 2.24 5 5 5s5-2.24 5-5z" fill="url(#C)"/><path d="M205.006 331.331v-160c0-2.759-2.24-5-5-5s-5 2.241-5 5v160c0 2.76 2.24 5 5 5s5-2.24 5-5z" fill="url(#D)"/><path d="M267.503 331.331v-115c0-2.759-2.24-5-5-5s-5 2.241-5 5v115c0 2.76 2.24 5 5 5s5-2.24 5-5z" fill="url(#E)"/><path d="M330.01 334.331v-133c0-2.759-2.24-5-5-5s-5 2.241-5 5v133c0 2.76 2.24 5 5 5s5-2.24 5-5z" fill="url(#F)"/><path d="M70.006 308.002H92.41a40 40 0 0 0 29.486-12.971l18.936-20.658c13.719-14.966 36.552-17.088 52.794-4.906l.001.001c15.71 11.782 37.693 10.22 51.579-3.666l14.084-14.084a40 40 0 0 1 28.285-11.716h42.431v94.329h-260v-26.329z" fill="url(#G)"/><path d="M5.006 340.001h320.001c2.76 0 5-2.24 5-5s-2.24-5-5-5H5.006c-2.76 0-5 2.241-5 5s2.24 5 5 5z" fill="url(#H)"/><path d="M75.006 313.002H92.41a45 45 0 0 0 33.172-14.592l18.936-20.658c11.981-13.071 31.923-14.924 46.108-4.285l.001.001c17.701 13.275 42.469 11.515 58.114-4.13l14.085-14.085c6.564-6.563 15.466-10.251 24.748-10.251h62.433c2.76 0 5-2.24 5-5s-2.24-5-5-5h-62.432a45 45 0 0 0-31.82 13.18l-14.085 14.085c-12.126 12.126-31.324 13.49-45.043 3.201l-.001-.001c-18.299-13.724-44.023-11.334-59.48 5.528l-18.936 20.657a35 35 0 0 1-25.8 11.35H75.006c-2.76 0-5 2.24-5 5s2.24 5 5 5z" fill="url(#I)"/><g fill="#fff"><path d="M105.006 122.002h41c2.76 0 5-2.24 5-5s-2.24-5-5-5h-41c-2.76 0-5 2.24-5 5s2.24 5 5 5zm-.003 31.165h26c2.76 0 5-2.24 5-5s-2.24-5-5-5h-26c-2.76 0-5.001 2.24-5.001 5s2.241 5 5.001 5z"/></g></g><path d="M80.008 127.004a10 10 0 0 0 0-19.999 10 10 0 0 0 0 19.999zm0 31.164a10 10 0 0 0 0-19.999 10 10 0 0 0 0 19.999z" fill="#fff"/><g fill="#151515"><path fill-rule="evenodd" d="M340.012.001c-38.634 0-70 31.366-70 70s31.366 70 70 70 70.001-31.366 70.001-70-31.367-70-70.001-70zm0 10c33.115 0 60 26.885 60 60s-26.885 60-60 60-60-26.885-60-60 26.885-60 60-60z"/><path d="M340.012 130.002c33.137 0 60-26.863 60-60s-26.863-60-60-60-60 26.863-60 60 26.863 60 60 60z"/></g><g fill-rule="evenodd"><path d="M340.012 10c33.115 0 60.001 26.885 60.001 60s-26.886 60-60.001 60-60-26.885-60-60 26.885-60 60-60zm0 10c27.596 0 50 22.404 50 50s-22.404 49.999-50 49.999S290.013 97.595 290.013 70s22.404-50 49.999-50z" fill="url(#J)"/><path d="M311.214 73.536l16.842 16.842c1.953 1.952 5.119 1.952 7.072 0l33.683-33.683c1.951-1.952 1.951-5.12 0-7.072s-5.12-1.951-7.072 0l-30.147 30.149-13.306-13.307c-1.952-1.951-5.12-1.951-7.072 0s-1.951 5.12 0 7.072z" fill="url(#K)"/><g fill="#fff"><path d="M.001 324.738v10.264a5 5 0 0 0 5 5h105.078c2.759 0 4.999-2.24 4.999-5s-2.24-5-4.999-5H10.002v-5.264c0-2.76-2.241-5-5.001-5s-5 2.24-5 5zm30.002-62.342v35.999c0 2.76 2.24 5.001 5 5.001s5-2.241 5-5.001v-35.999c0-2.76-2.24-5-5-5s-5 2.24-5 5z"/><path d="M16.389 298.408l15.06 15.059c1.953 1.952 5.119 1.952 7.072 0l15.094-15.095c1.952-1.951 1.952-5.119 0-7.071a5 5 0 0 0-7.07 0l-11.56 11.56-11.524-11.525a5.01 5.01 0 0 0-7.072 0c-1.95 1.951-1.95 5.12 0 7.072z"/></g></g></g><defs><linearGradient id="A" x1="70.306" y1="57.802" x2="350.323" y2="341.873" xlink:href="#M"><stop stop-color="#ff0cf5"/><stop offset="1" stop-color="#0575e6"/></linearGradient><linearGradient id="B" x1="53.003" y1="199.002" x2="111.003" y2="316.002" xlink:href="#M"><stop stop-color="#3aa0fe"/><stop offset="1" stop-color="#59fef4"/></linearGradient><linearGradient id="C" x1="115.51" y1="199.002" x2="173.51" y2="316.002" xlink:href="#M"><stop stop-color="#3aa0fe"/><stop offset="1" stop-color="#59fef4"/></linearGradient><linearGradient id="D" x1="178.006" y1="199.002" x2="236.006" y2="316.002" xlink:href="#M"><stop stop-color="#3aa0fe"/><stop offset="1" stop-color="#59fef4"/></linearGradient><linearGradient id="E" x1="240.503" y1="199.002" x2="298.503" y2="316.002" xlink:href="#M"><stop stop-color="#3aa0fe"/><stop offset="1" stop-color="#59fef4"/></linearGradient><linearGradient id="F" x1="303.01" y1="199.002" x2="361.01" y2="316.002" xlink:href="#M"><stop stop-color="#3aa0fe"/><stop offset="1" stop-color="#59fef4"/></linearGradient><linearGradient id="G" x1="180.006" y1="252.831" x2="180.006" y2="341.873" xlink:href="#M"><stop stop-color="#36ff78" stop-opacity=".8"/><stop offset="1" stop-color="#0cffff" stop-opacity=".15"/></linearGradient><linearGradient id="H" x1=".006" y1="335.001" x2="313.007" y2="335.001" xlink:href="#M"><stop stop-color="#3aa0fe"/><stop offset="1" stop-color="#59fef4"/></linearGradient><linearGradient id="I" x1="86.006" y1="260.002" x2="285.006" y2="291.002" xlink:href="#M"><stop stop-color="#36ff78"/><stop offset="1" stop-color="#0cffff"/></linearGradient><linearGradient id="J" x1="280.012" y1="70" x2="400.013" y2="70" xlink:href="#M"><stop stop-color="#36ff78"/><stop offset="1" stop-color="#0cffff"/></linearGradient><linearGradient id="K" x1="310.012" y1="75" x2="365.012" y2="90" xlink:href="#M"><stop stop-color="#36ff78"/><stop offset="1" stop-color="#0cffff"/></linearGradient><clipPath id="L"><path fill="#fff" d="M0 0h410v410H0z"/></clipPath><linearGradient id="M" gradientUnits="userSpaceOnUse"/></defs></svg>
